X:2
T:Hommage a Doroth\'ee
C:Phillipe Bruneau
D:Levy, Ostroushko, et al - First Generation
Z:transcribed by Moshe Braner, March 2001
M:3/4
L:1/8
K:Bm
|: "Bm"B2 Bc dB | "F#7"c2 f2 f2 | "Bm"B2 Bc dB | "F#7"c2 F2 F2 |
   "Bm"B2 Bc dB | "A7"c2 Ac eg  | "D"f6 |1 fg fe dc :|2 f2 "Bm"Bcde ||
|: "Em"e2 ef ge | "Bm"f2 b2 b2  | "Em"e2 ef ge | "Bm"f2 B2 B2 |
   "Em"e2 ef ge | "D7"f2 df a=c'| "G"b6 |1 b=c' ba gf :|2 b2 a2 g2 ||
"D"f3 a a2 | a2 g2 f2 | "Em"e3 g g2 | g2 f2 e2 |
"F#7"c'6 | c'4 g2 | f6 | fg fe dc |
"Bm"B2 Bc dB | "F#7"c2 f2 f2 | "Bm"B2 Bc dB | "F#7"c2 F2 F2 |
"Bm"B2 Bc dB | "F#7"c2-cedc | "Bm"B2-BFdc | B6 ||
"Bm"b2d'2-d'b | f6 | "Em"e2g2-ge | "F#7"c6 |
"F#7"F2^A2c2 | e2d2c2 | "Bm"B2-Bcde | f6 |
"Bm"b2d'2-d'b | f6 | "Em"e2g2-ge | "F#7"c6 |
"F#7"F2^A2c2 | e2d2c2 | "Bm"B2-BFdc | B6 ||

(Message inbox:596)
Return-Path: mbraner@usa.net
Return-path: <mbraner@usa.net>
Envelope-to: jc@trillian.mit.edu
Delivery-date: Fri, 30 Mar 2001 00:00:14 -0500
Received: from kraken.vdh.state.vt.us ([159.105.134.230])
	by trillian.mit.edu with esmtp (Exim 3.12 #2)
	id 14ir1C-000N33-00
	for jc@trillian.mit.edu; Fri, 30 Mar 2001 00:00:14 -0500
Received: from desktop (dialin-234.govnet.state.vt.us [170.222.244.235]) by kraken.vdh.state.vt.us with SMTP (Microsoft Exchange Internet Mail Service Version 5.5.2650.21)
	id HFF8C7FX; Fri, 30 Mar 2001 00:01:55 -0500
Message-Id: <3.0.5.32.20010329235902.0080c940@pop.netaddress.com>
X-Sender: mbraner@pop.netaddress.com
X-Mailer: QUALCOMM Windows Eudora Light Version 3.0.5 (32)
Date: Thu, 29 Mar 2001 23:59:02 -0500
To: John Chambers <jc@trillian.mit.edu>
From: Moshe Braner <mbraner@usa.net>
Subject: Valse des Niglos
References: <Your message of "Mon, 05 Mar 2001 22:13:33 EST."             <3.0.5.32.20010305221333.0091a4b0@pop.netaddress.com>
Mime-Version: 1.0
Content-Type: text/plain; charset="us-ascii"

